static/assets/img/icons/theme/media/music-note.svg

<svg height="24" viewBox="0 0 24 24" width="24" xmlns="http://www.w3.org/2000/svg"><g fill="none" fill-rule="evenodd"><path d="m0 0h24v24h-24z" opacity="0"/><path d="m11.9785206 18.8007059c-.1782273 1.2389269-1.4437905 2.1992941-2.9785206 2.1992941-1.65685425 0-3-1.1192881-3-2.5s1.34314575-2.5 3-2.5c.35063542 0 .68722107.0501285 1 .1422548v-10.21054387c0-.51277151.319781-.96604476.7894406-1.11899168l5.75-1.75853614c.724422-.2359115 1.4605594.3280722 1.4605594 1.11899169v1.75853613c0 .58617872-.5488366.96054513-1 1.06828907-.6491332.15502181-2.3157999.48835515-5 1v10.5512168c0 .0897788-.0072807.1729019-.0214794.2494891z" fill="#000" fill-rule="nonzero"/></g></svg>

<svg width="24px" height="24px" viewBox="0 0 24 24" version="1.1" xmlns="http://www.w3.org/2000/svg" xmlns:xlink="http://www.w3.org/1999/xlink">
    <title>Icon For Music-note</title>
    <g stroke="none" stroke-width="1" fill="none" fill-rule="evenodd">
        <rect opacity="0" x="0" y="0" width="24" height="24"></rect>
        <path d="M11.9785206,18.8007059 C11.8002933,20.0396328 10.5347301,21 9,21 C7.34314575,21 6,19.8807119 6,18.5 C6,17.1192881 7.34314575,16 9,16 C9.35063542,16 9.68722107,16.0501285 10,16.1422548 L10,5.93171093 C10,5.41893942 10.319781,4.96566617 10.7894406,4.81271925 L16.5394406,3.05418311 C17.2638626,2.81827161 18,3.38225531 18,4.1731748 C18,4.95474642 18,5.54092513 18,5.93171093 C18,6.51788965 17.4511634,6.89225606 17,7 C16.3508668,7.15502181 14.6842001,7.48835515 12,8 L12,18.5512168 C12,18.6409956 11.9927193,18.7241187 11.9785206,18.8007059 Z" fill="#000000" fill-rule="nonzero"></path>
    </g>
</svg>
